X: 10572
T: Dorsetshire, The
R: hornpipe
M: 4/4
K: Dmajor
|:a>g|f>^ef>g a>gf<=e|d>cd<f A2 A>G|F>Ad>f g>fe>d|c>de>f e2 a>g|
f>^ef>g a>g f/g/f/=e/|d>cd<f A>B (3BAG|F>A (3def g>ec>e|(3ded c>e d2:|
|:c>d|e>dc>B A>Bc>d|e>^de<f (3efe =d>e|f>ed>c B>cd>e|f>^ef<g f2 A>G|
F>Ad>A G>Be>B|A>df>d B>dg>e|f>^ef<d (3Bcg =e>c|d2 d2 d2:|

